X:1
T: Mrs. Stennet's Quickstep
C:
R:Jig
Q:180
K:Bb
M:6/8
L:1/16
|:F2|B,6B6|A2G2F2 G2F2D2|B,6 B2A2B2|G2c2B2 A2G2F2|
B,6B6|A2G2F2 G2F2D2|E2D2E2 C2F2E2|D2B,2B,2B,4:|
|:f2|d2c2B2 d2c2B2|g2f2e2 g2f2e2|d2c2B2 f2d2B2|A2G2F2 A2c2e2|
d2c2B2 d2c2B2|g2f2e2 g2a2b2|f2e2d2 c2d2B2|F2B2A2 B4:|
